X: 1
T: An Tseanbhean Bhocht
R: reel
S: John Doherty
D: The Star of Donegal (Folktracks 075)
N: Close but not fastidiously exact transcription; Doherty plays the tune through twice.
Z: Transcribed by Larry Sanger.
M: 4/4
K: G
c2 \
|: BG G/G/G AEGE | DEGA BAAc | BG G/G/G AEGE | DEGA BGGA :|
| Bddg edgd | Bdgd eAAc | Bddg edgd | B/c/B Ac BGGc |
| Bddg edgd | Bdgd eAAc | Bdef g/a/b ge | dBge dADc |]
